X:1
T: Royal Glasgow Volunteers March 
T: DUETT for TWO FLUTES
M: C|
B: James Campbell's Collection 1798
Z: source from Highland Music Trust, chords by Gary Whaley
L: 1/8
K: G
V:T1
d>d [|: g4 d2>B2 | G2 G>G G2 d>d | e2 e>e eg/f/ {a}gf/e/ |{e}d2 d>d d2 d>d |
|g2 g>g a2 a>a | b2 b>b ^c'2 c'>c' | d'>ab>g f2 e>e |d2 d>d d2 :|]
d>d [|: g4 d2>=f2 | e2 c>c c2 (a/c/'b/d'/)|{d'}c'2>b2 (ba)(ag) |d'2 d>d d2 d2 |
|e2>f2 {a}g2 fe | dgbd' d'2 c'2 | bTb {ab}c'a g2 e>e | g2 g>g g2 :|]
V:T2
d>d [|: g4 d2>B2 | G2 G>G G2 B>B | c2 c>c ce/d/ {f}ed/c/ |B2 B>B B2 z2 |
|z4 d2 d>d |g2 g>g e2 e>e | f2 g>e d2 A2 | A2 A>A A2 :|]
d>d [|: z2 G>A B>cdB | c2 c>c c2 fg | a2>g2 c2 ^c2 | d2 A>A A2 B2 |
|cGcd {f}e2 dc |B2 G2 b2 a2 | gdec B2 A2 | B2 B>B B2 :|]

